Komodo/status/24/weather-fog.svg

<?xml version="1.0" encoding="UTF-8" standalone="no"?>
<!-- Created with Inkscape (http://www.inkscape.org/) -->
<svg
   xmlns:svg="http://www.w3.org/2000/svg"
   xmlns="http://www.w3.org/2000/svg"
   version="1.0"
   width="24"
   height="24"
   id="svg3181">
  <defs
     id="defs3183" />
  <path
     d="M 6.5,16.000107 C 8,14.500109 10,14.500109 12,16.000107 C 14.066895,17.550279 16,17.500109 17.5,16.000109 M 6.5,12.000104 C 8,10.500105 10,10.500105 12,12.000104 C 14.066895,13.550278 16,13.500108 17.5,12.000105 M 6.5,8.0001044 C 8,6.5001049 10,6.5001049 12,8.0001046 C 14.066895,9.5502758 16,9.5001049 17.5,8.0001049"
     id="path3179"
     style="opacity:0.6;fill:none;fill-opacity:1;fill-rule:nonzero;stroke:#3a3935;stroke-width:3.5;stroke-linecap:round;stroke-linejoin:miter;marker:none;marker-start:none;marker-mid:none;marker-end:none;stroke-miterlimit:4;stroke-dasharray:none;stroke-dashoffset:0;stroke-opacity:1;visibility:visible;display:inline;overflow:visible;enable-background:accumulate" />
  <path
     d="M 6.5,16.000107 C 8,14.500109 10,14.500109 12,16.000107 C 14.066895,17.550279 16,17.500109 17.5,16.000109 M 6.5,12.000104 C 8,10.500105 10,10.500105 12,12.000104 C 14.066895,13.550278 16,13.500108 17.5,12.000105 M 6.5,8.0001044 C 8,6.5001049 10,6.5001049 12,8.0001046 C 14.066895,9.5502758 16,9.5001049 17.5,8.0001049"
     id="path3645"
     style="fill:none;fill-opacity:1;fill-rule:nonzero;stroke:#eae3d0;stroke-width:1.5;stroke-linecap:round;stroke-linejoin:miter;marker:none;marker-start:none;marker-mid:none;marker-end:none;stroke-miterlimit:4;stroke-dasharray:none;stroke-dashoffset:0;stroke-opacity:1;visibility:visible;display:inline;overflow:visible;enable-background:accumulate" />
</svg>

<?xml version="1.0" encoding="UTF-8" standalone="no"?>
<!-- Created with Inkscape (http://www.inkscape.org/) -->
<svg id="svg3181" xmlns="http://www.w3.org/2000/svg" height="24" width="24" version="1.0">
 <path id="path3179" style="opacity:.6;stroke-width:3.5;stroke:#3a3935;stroke-linecap:round;fill:none" d="m6.5 16c1.5-1.5 3.5-1.5 5.5 0 2.067 1.55 4 1.5 5.5 0m-11-4c1.5-1.5 3.5-1.5 5.5 0 2.067 1.55 4 1.5 5.5 0m-11-3.9999c1.5-1.5 3.5-1.5 5.5 0 2.067 1.5502 4 1.5 5.5 0"/>
 <path id="path3645" style="stroke-width:1.5;stroke:#eae3d0;stroke-linecap:round;fill:none" d="m6.5 16c1.5-1.5 3.5-1.5 5.5 0 2.067 1.55 4 1.5 5.5 0m-11-4c1.5-1.5 3.5-1.5 5.5 0 2.067 1.55 4 1.5 5.5 0m-11-3.9999c1.5-1.5 3.5-1.5 5.5 0 2.067 1.5502 4 1.5 5.5 0"/>
</svg>
